X: 20
T:Old Roisín The Beau
M:6/8
L:1/8
Q:100
R:Jig
K:A
E|"A"A>GA c>BA|e3"D"f3|"A"e>cA A>Bc|"F#m"F3-F2E|
"A"A>GA c>BA|e3"D"f3|"A"e>cA "E7"BAG|"A"A3-A2::!
c/2d/2|"A"e2e efg|"D"a2fa2f|"A"e>cA A>Bc|"F#m"F3-F2E|
"A"A>GA c>BA|e3"D"f3|"A"e>cA "E7"BAG|"A"A3-A2:|
